svg/u1f647_1f3fc_200d_2640.svg

<svg viewBox="0 0 128 128" xmlns="http://www.w3.org/2000/svg">
  <defs>
    <linearGradient id="shirt_1_" gradientTransform="matrix(1 0 0 -1 0 0)" gradientUnits="userSpaceOnUse" x1="64.2273" x2="64.2273" y1="-75.5026" y2="-126.3422">
      <stop offset="0" stop-color="#651FFF"/>
      <stop offset="0.7047" stop-color="#5914F2"/>
      <stop offset="1" stop-color="#530EEB"/>
    </linearGradient>
    <radialGradient id="SVGID_1_" cx="63.888" cy="-261.595852" gradientTransform="matrix(1 0 0 -0.4142 0 0)" gradientUnits="userSpaceOnUse" r="38.6511">
      <stop offset="0.771" stop-color="#000000"/>
      <stop offset="1" stop-color="#000000" stop-opacity="0"/>
    </radialGradient>
    <linearGradient id="hand_2_" gradientTransform="matrix(1 0 0 -1 0 0)" gradientUnits="userSpaceOnUse" x1="61.8082" x2="40.443" y1="-118.773" y2="-118.773">
      <stop offset="0.5" stop-color="#E0BB95"/>
      <stop offset="1" stop-color="#CCA47A"/>
    </linearGradient>
    <linearGradient id="hand_3_" gradientTransform="matrix(1 0 0 -1 0 0)" gradientUnits="userSpaceOnUse" x1="67.8082" x2="88.3217" y1="-118.773" y2="-118.773">
      <stop offset="0.5" stop-color="#E0BB95"/>
      <stop offset="1" stop-color="#CCA47A"/>
    </linearGradient>
    <radialGradient id="hairHighlights_2_" cx="64.0372" cy="-58.210386" gradientTransform="matrix(1 0 0 -1.1901 0 0)" gradientUnits="userSpaceOnUse" r="43.4508">
      <stop offset="0.7936" stop-color="#BFA055" stop-opacity="0"/>
      <stop offset="1" stop-color="#BFA055"/>
    </radialGradient>
    <radialGradient id="hairHighlights_3_" cx="64.3614" cy="-65.797777" gradientTransform="matrix(1 0 0 -1.2135 0 0)" gradientUnits="userSpaceOnUse" r="48.4382">
      <stop offset="0.7945" stop-color="#BFA055" stop-opacity="0"/>
      <stop offset="1" stop-color="#BFA055"/>
    </radialGradient>
  </defs>
  <path id="hair_1_" d="M103.04,58.65 C103.04,59.95 103.03,61.28 103.02,62.63 C103.02,63.31 103.01,63.99 103,64.67 C102.99,65.36 102.98,66.05 102.97,66.75 C102.89,71.41 102.74,76.29 102.47,81.21 C102.38,82.86 102.28,84.53 102.17,86.19 C102.12,86.96 102.06,87.74 102,88.51 C101.94,89.24 101.89,89.98 101.82,90.71 C101.78,91.22 101.74,91.72 101.69,92.22 C101.57,93.51 101.45,94.79 101.31,96.06 C101.27,96.46 101.23,96.85 101.18,97.25 C101.02,98.68 100.85,100.11 100.66,101.51 C100.59,102.07 100.51,102.63 100.43,103.18 C100.12,105.41 99.76,107.59 99.37,109.71 C99.25,110.33 99.13,110.96 99.01,111.57 C98.85,112.34 98.69,113.1 98.53,113.85 C98.41,114.39 98.29,114.92 98.16,115.44 C97.84,116.81 97.49,118.13 97.12,119.41 C97,119.82 96.88,120.22 96.76,120.62 C96.6,121.16 96.43,121.69 96.25,122.21 C96.14,122.53 96.04,122.85 95.92,123.16 C95.83,123.43 95.74,123.7 95.64,123.96 L32.42,123.96 C32.32,123.7 32.23,123.43 32.14,123.16 C32.03,122.85 31.92,122.53 31.81,122.21 C31.68,121.83 31.56,121.45 31.44,121.06 C31.35,120.79 31.27,120.51 31.19,120.24 C30.68,118.57 30.21,116.8 29.79,114.96 C29.62,114.24 29.46,113.51 29.3,112.78 C29.29,112.73 29.28,112.68 29.27,112.62 C29.12,111.89 28.97,111.16 28.83,110.42 C28.75,110.03 28.68,109.64 28.61,109.24 C28.51,108.71 28.42,108.18 28.33,107.64 C28.25,107.19 28.17,106.74 28.1,106.28 C28.01,105.74 27.93,105.19 27.84,104.64 C27.22,100.47 26.72,96.12 26.33,91.69 C26.27,91.02 26.21,90.34 26.16,89.66 C25.92,86.72 25.73,83.76 25.57,80.81 C25.5,79.38 25.43,77.95 25.37,76.53 C25.36,76.12 25.34,75.71 25.33,75.3 C25.22,72.4 25.14,69.53 25.1,66.75 C25.09,66.05 25.08,65.36 25.07,64.67 C25.06,63.99 25.05,63.31 25.05,62.63 C25.04,61.28 25.03,59.95 25.03,58.65 C25.03,58.05 24.71,19.92 64.59,19.92 C104.47,19.92 103.04,58.05 103.04,58.65 Z" fill="#AB872F"/>
  <path id="hairHighlights_1_" d="M103.04,58.65 C103.04,59.95 103.03,61.28 103.02,62.63 C103.02,63.31 103.01,63.99 103,64.67 C102.99,65.36 102.98,66.05 102.97,66.75 C102.89,71.41 102.74,76.29 102.47,81.21 C102.38,82.86 102.28,84.53 102.17,86.19 C102.12,86.96 102.06,87.74 102,88.51 C101.94,89.24 101.89,89.98 101.82,90.71 C101.78,91.22 101.74,91.72 101.69,92.22 C101.57,93.51 101.45,94.79 101.31,96.06 C101.27,96.46 101.23,96.85 101.18,97.25 C101.02,98.68 100.85,100.11 100.66,101.51 C100.59,102.07 100.51,102.63 100.43,103.18 C100.12,105.41 99.76,107.59 99.37,109.71 C99.25,110.33 99.13,110.96 99.01,111.57 C98.85,112.34 98.69,113.1 98.53,113.85 C98.41,114.39 98.29,114.92 98.16,115.44 C97.84,116.81 97.49,118.13 97.12,119.41 C97,119.82 96.88,120.22 96.76,120.62 C96.6,121.16 96.43,121.69 96.25,122.21 C96.14,122.53 96.04,122.85 95.92,123.16 C95.83,123.43 95.74,123.7 95.64,123.96 L32.42,123.96 C32.32,123.7 32.23,123.43 32.14,123.16 C32.03,122.85 31.92,122.53 31.81,122.21 C31.68,121.83 31.56,121.45 31.44,121.06 C31.35,120.79 31.27,120.51 31.19,120.24 C30.68,118.57 30.21,116.8 29.79,114.96 C29.62,114.24 29.46,113.51 29.3,112.78 C29.29,112.73 29.28,112.68 29.27,112.62 C29.12,111.9 28.97,111.17 28.83,110.42 C28.75,110.03 28.68,109.64 28.61,109.24 C28.51,108.71 28.42,108.18 28.33,107.64 C28.25,107.19 28.17,106.74 28.1,106.28 C28.01,105.74 27.93,105.19 27.84,104.64 C27.22,100.47 26.72,96.12 26.33,91.69 C26.27,91.02 26.21,90.34 26.16,89.66 C25.92,86.72 25.73,83.76 25.57,80.81 C25.5,79.38 25.43,77.95 25.37,76.53 C25.36,76.12 25.34,75.71 25.33,75.3 C25.22,72.4 25.14,69.53 25.1,66.75 C25.09,66.05 25.08,65.36 25.07,64.67 C25.06,63.99 25.05,63.31 25.05,62.63 C25.04,61.28 25.03,59.95 25.03,58.65 C25.03,58.05 24.71,19.92 64.59,19.92 C104.47,19.92 103.04,58.05 103.04,58.65 Z" fill="url(#hairHighlights_2_)"/>
  <path id="shirt" d="M113.05,91.9 C99.03,77.41 68.83,76.36 64.5,76.28 L64.5,76.27 C64.5,76.27 64.39,76.27 64.23,76.27 C64.07,76.27 63.96,76.27 63.96,76.27 L63.96,76.28 C59.63,76.36 29.42,77.41 15.41,91.9 C5.2,102.46 7.41,112.7 9.53,115.71 C13.54,121.39 24.28,123.96 24.28,123.96 L63.75,123.96 L64.71,123.96 L104.18,123.96 C104.18,123.96 114.92,121.39 118.93,115.71 C121.05,112.7 123.26,102.46 113.05,91.9 Z" fill="url(#shirt_1_)"/>
  <path d="M64,92.7 C36.74,92.7 27.81,103.76 27.81,103.76 L38.83,109.93 C39.61,110.46 39.9,111.47 39.51,112.32 L38.96,113.55 L54.04,124 L73.96,124 L89.04,113.55 L88.49,112.32 C88.1,111.47 88.39,110.46 89.17,109.93 L99.97,103.63 C99.97,103.64 91.26,92.7 64,92.7 Z" fill="url(#SVGID_1_)" opacity="0.2"/>
  <path d="M64,87.08 L54.92,87.08 L54.92,97.06 C54.92,101.57 59.21,105.23 64,105.23 C68.79,105.23 73.08,101.57 73.08,97.06 L73.08,87.08 L64,87.08 Z" fill="#C48E6A"/>
  <path id="hand_1_" d="M38.96,113.56 L42.27,113.76 C43.49,113.76 44.69,113.94 45.85,114.29 C49.45,115.39 57.39,118.16 61.7,119.26 C62.76,119.53 63.49,120.48 63.49,121.58 C63.49,122.24 63.22,122.84 62.79,123.27 C62.35,123.71 61.75,123.98 61.09,123.98 L34.56,123.98 L38.96,113.56 Z" fill="url(#hand_2_)"/>
  <path id="hand" d="M89.04,113.56 L85.73,113.76 C84.51,113.76 83.31,113.94 82.15,114.29 C78.55,115.39 70.62,118.16 66.31,119.26 C65.24,119.53 64.51,120.48 64.51,121.58 C64.51,122.24 64.78,122.84 65.21,123.27 C65.65,123.71 66.25,123.98 66.91,123.98 L93.37,123.98 L89.04,113.56 Z" fill="url(#hand_3_)"/>
  <path id="head" d="M64,25.31 L64,25.31 L64,25.31 C47.33,25.31 31.9,41.52 31.9,64.85 C31.9,88.05 47.8,99.52 64,99.52 C80.2,99.52 96.1,88.05 96.1,64.85 C96.1,41.52 80.66,25.31 64,25.31 Z" fill="#E0BB95"/>
  <path id="nose" d="M67.69,83.76 C67.59,83.72 67.48,83.7 67.38,83.69 L60.61,83.69 C60.51,83.7 60.4,83.72 60.3,83.76 C59.69,83.99 59.35,84.57 59.64,85.18 C59.93,85.79 61.28,87.53 64,87.53 C66.72,87.53 68.07,85.8 68.36,85.18 C68.65,84.57 68.31,83.99 67.69,83.76 Z" fill="#C48E6A"/>
  <path d="M52.49,74.81 A4.93 4 0 1 1 42.63,74.81 A4.93 4 0 1 1 52.49,74.81 Z" fill="#5D4037"/>
  <path d="M85.37,74.81 A4.93 4 0 1 1 75.51,74.81 A4.93 4 0 1 1 85.37,74.81 Z" fill="#5D4037"/>
  <path d="M54.99,65.82 C54.06,64.59 51.92,62.81 47.76,62.81 C43.6,62.81 41.45,64.6 40.53,65.82 C40.12,66.36 40.22,66.99 40.51,67.37 C40.77,67.72 41.55,68.05 42.41,67.76 C43.27,67.47 44.95,66.6 47.76,66.58 C50.57,66.6 52.25,67.47 53.11,67.76 C53.97,68.05 54.75,67.72 55.01,67.37 C55.29,66.99 55.39,66.36 54.99,65.82 Z" fill="#AB872F"/>
  <path d="M87.48,65.82 C86.55,64.59 84.41,62.81 80.25,62.81 C76.09,62.81 73.94,64.6 73.02,65.82 C72.61,66.36 72.71,66.99 73,67.37 C73.26,67.72 74.04,68.05 74.9,67.76 C75.76,67.47 77.44,66.6 80.25,66.58 C83.06,66.6 84.74,67.47 85.6,67.76 C86.46,68.05 87.24,67.72 87.5,67.37 C87.79,66.99 87.89,66.36 87.48,65.82 Z" fill="#AB872F"/>
  <path id="hair" d="M32.42,81.72 C32.96,75.89 35.16,62.8 40.15,61.64 C61.9,56.59 74.2,44.66 74.2,44.66 C77.4,51.89 87.41,58.93 91,61.61 C93.46,63.44 94.49,75.2 94.74,81.28 L101.82,84.12 L102.29,84.12 C102.29,84.07 102.31,84.02 102.31,83.96 C102.86,75.17 103.04,66.41 103.04,58.65 C103.04,58.05 104.47,19.92 64.59,19.92 C24.71,19.92 25.03,58.05 25.03,58.65 C25.03,66.45 25.21,75.27 25.76,84.12 L26.64,84.12 L32.42,81.72 Z" fill="#AB872F"/>
  <path id="hairHighlights" d="M32.42,81.72 C32.96,75.89 35.16,62.8 40.15,61.64 C61.9,56.59 74.2,44.66 74.2,44.66 C77.4,51.89 87.41,58.93 91,61.61 C93.46,63.44 94.49,75.2 94.74,81.28 L101.82,84.12 L102.29,84.12 C102.29,84.07 102.31,84.02 102.31,83.96 C102.86,75.17 103.04,66.41 103.04,58.65 C103.04,58.05 104.47,19.92 64.59,19.92 C24.71,19.92 25.03,58.05 25.03,58.65 C25.03,66.45 25.21,75.27 25.76,84.12 L26.64,84.12 L32.42,81.72 Z" fill="url(#hairHighlights_3_)"/>
  <path id="XMLID_56_" d="M50.628,16.507 L47.928,6.417 Q47.669,5.451 48.023,4.839 Q48.377,4.226 49.343,3.968 Q51.275,3.451 51.792,5.383 L54.492,15.473 Q54.751,16.439 54.397,17.051 Q54.043,17.664 53.077,17.922 Q51.145,18.439 50.628,16.507 Z" fill="#B0BEC5"/>
  <path id="XMLID_55_" d="M35.559,24.007 L28.899,17.467 Q27.472,16.066 28.873,14.639 Q29.574,13.925 30.281,13.919 Q30.988,13.912 31.701,14.613 L38.361,21.153 Q39.788,22.554 38.387,23.981 Q37.686,24.695 36.979,24.701 Q36.272,24.708 35.559,24.007 Z" fill="#B0BEC5"/>
  <path id="XMLID_54_" d="M88.897,22.005 L96.287,14.625 Q96.994,13.918 97.701,13.919 Q98.409,13.919 99.115,14.627 Q100.528,16.042 99.113,17.455 L91.723,24.835 Q91.016,25.542 90.309,25.541 Q89.601,25.541 88.895,24.833 Q87.482,23.418 88.897,22.005 Z" fill="#B0BEC5"/>
  <path id="XMLID_53_" d="M73.508,15.473 L76.208,5.383 Q76.466,4.417 77.079,4.063 Q77.691,3.709 78.657,3.968 Q80.589,4.485 80.072,6.417 L77.372,16.507 Q77.114,17.473 76.501,17.827 Q75.889,18.181 74.923,17.922 Q72.991,17.405 73.508,15.473 Z" fill="#B0BEC5"/>
</svg>

<svg viewBox="0 0 128 128" xmlns="http://www.w3.org/2000/svg">
  <g id="hairGroup_1_">
    <path id="hair_1_" d="M103.04,58.65c0,1.3-0.01,2.63-0.02,3.98c0,0.68-0.01,1.36-0.02,2.04 c-0.01,0.69-0.02,1.38-0.03,2.08c-0.08,4.66-0.23,9.54-0.5,14.46c-0.09,1.65-0.19,3.32-0.3,4.98c-0.05,0.77-0.11,1.55-0.17,2.32 c-0.06,0.73-0.11,1.47-0.18,2.2c-0.04,0.51-0.08,1.01-0.13,1.51c-0.12,1.29-0.24,2.57-0.38,3.84c-0.04,0.4-0.08,0.79-0.13,1.19 c-0.16,1.43-0.33,2.86-0.52,4.26c-0.07,0.56-0.15,1.12-0.23,1.67c-0.31,2.23-0.67,4.41-1.06,6.53c-0.12,0.62-0.24,1.25-0.36,1.86 c-0.16,0.77-0.32,1.53-0.48,2.28c-0.12,0.54-0.24,1.07-0.37,1.59c-0.32,1.37-0.67,2.69-1.04,3.97c-0.12,0.41-0.24,0.81-0.36,1.21 c-0.16,0.54-0.33,1.07-0.51,1.59c-0.11,0.32-0.21,0.64-0.33,0.95c-0.09,0.27-0.18,0.54-0.28,0.8H32.42 c-0.1-0.26-0.19-0.53-0.28-0.8c-0.11-0.31-0.22-0.63-0.33-0.95c-0.13-0.38-0.25-0.76-0.37-1.15c-0.09-0.27-0.17-0.55-0.25-0.82 c-0.51-1.67-0.98-3.44-1.4-5.28c-0.17-0.72-0.33-1.45-0.49-2.18c-0.01-0.05-0.02-0.1-0.03-0.16c-0.15-0.73-0.3-1.46-0.44-2.2 c-0.08-0.39-0.15-0.78-0.22-1.18c-0.1-0.53-0.19-1.06-0.28-1.6c-0.08-0.45-0.16-0.9-0.23-1.36c-0.09-0.54-0.17-1.09-0.26-1.64 c-0.62-4.17-1.12-8.52-1.51-12.95c-0.06-0.67-0.12-1.35-0.17-2.03c-0.24-2.94-0.43-5.9-0.59-8.85c-0.07-1.43-0.14-2.86-0.2-4.28 c-0.01-0.41-0.03-0.82-0.04-1.23c-0.11-2.9-0.19-5.77-0.23-8.55c-0.01-0.7-0.02-1.39-0.03-2.08c-0.01-0.68-0.02-1.36-0.02-2.04 c-0.01-1.35-0.02-2.68-0.02-3.98c0-0.6-0.32-38.73,39.56-38.73S103.04,58.05,103.04,58.65z" fill="#AB872F"/>
    <radialGradient id="hairHighlights_2_" cx="64.0372" cy="58.7213" gradientTransform="matrix(1 0 0 -1.1901 0 139.1604)" gradientUnits="userSpaceOnUse" r="43.4508">
      <stop offset="0.7936" stop-color="#BFA055" stop-opacity="0"/>
      <stop offset="1" stop-color="#BFA055"/>
    </radialGradient>
    <path id="hairHighlights_1_" d="M103.04,58.65c0,1.3-0.01,2.63-0.02,3.98 c0,0.68-0.01,1.36-0.02,2.04c-0.01,0.69-0.02,1.38-0.03,2.08c-0.08,4.66-0.23,9.54-0.5,14.46c-0.09,1.65-0.19,3.32-0.3,4.98 c-0.05,0.77-0.11,1.55-0.17,2.32c-0.06,0.73-0.11,1.47-0.18,2.2c-0.04,0.51-0.08,1.01-0.13,1.51c-0.12,1.29-0.24,2.57-0.38,3.84 c-0.04,0.4-0.08,0.79-0.13,1.19c-0.16,1.43-0.33,2.86-0.52,4.26c-0.07,0.56-0.15,1.12-0.23,1.67c-0.31,2.23-0.67,4.41-1.06,6.53 c-0.12,0.62-0.24,1.25-0.36,1.86c-0.16,0.77-0.32,1.53-0.48,2.28c-0.12,0.54-0.24,1.07-0.37,1.59c-0.32,1.37-0.67,2.69-1.04,3.97 c-0.12,0.41-0.24,0.81-0.36,1.21c-0.16,0.54-0.33,1.07-0.51,1.59c-0.11,0.32-0.21,0.64-0.33,0.95c-0.09,0.27-0.18,0.54-0.28,0.8 H32.42c-0.1-0.26-0.19-0.53-0.28-0.8c-0.11-0.31-0.22-0.63-0.33-0.95c-0.13-0.38-0.25-0.76-0.37-1.15 c-0.09-0.27-0.17-0.55-0.25-0.82c-0.51-1.67-0.98-3.44-1.4-5.28c-0.17-0.72-0.33-1.45-0.49-2.18c-0.01-0.05-0.02-0.1-0.03-0.16 c-0.15-0.72-0.3-1.45-0.44-2.2c-0.08-0.39-0.15-0.78-0.22-1.18c-0.1-0.53-0.19-1.06-0.28-1.6c-0.08-0.45-0.16-0.9-0.23-1.36 c-0.09-0.54-0.17-1.09-0.26-1.64c-0.62-4.17-1.12-8.52-1.51-12.95c-0.06-0.67-0.12-1.35-0.17-2.03c-0.24-2.94-0.43-5.9-0.59-8.85 c-0.07-1.43-0.14-2.86-0.2-4.28c-0.01-0.41-0.03-0.82-0.04-1.23c-0.11-2.9-0.19-5.77-0.23-8.55c-0.01-0.7-0.02-1.39-0.03-2.08 c-0.01-0.68-0.02-1.36-0.02-2.04c-0.01-1.35-0.02-2.68-0.02-3.98c0-0.6-0.32-38.73,39.56-38.73S103.04,58.05,103.04,58.65z" fill="url(#hairHighlights_2_)"/>
  </g>
  <linearGradient id="shirt_1_" gradientTransform="matrix(1 0 0 -1 0 128)" gradientUnits="userSpaceOnUse" x1="64.2273" x2="64.2273" y1="52.4974" y2="1.6578">
    <stop offset="0" stop-color="#651FFF"/>
    <stop offset="0.7047" stop-color="#5914F2"/>
    <stop offset="1" stop-color="#530EEB"/>
  </linearGradient>
  <path id="shirt" d="M113.05,91.9C99.03,77.41,68.83,76.36,64.5,76.28v-0.01c0,0-0.11,0-0.27,0 c-0.16,0-0.27,0-0.27,0v0.01c-4.33,0.08-34.54,1.13-48.55,15.62c-10.21,10.56-8,20.8-5.88,23.81c4.01,5.68,14.75,8.25,14.75,8.25 h39.47h0.96h39.47c0,0,10.74-2.57,14.75-8.25C121.05,112.7,123.26,102.46,113.05,91.9z" fill="url(#shirt_1_)"/>
  <radialGradient id="SVGID_1_" cx="63.888" cy="19.6562" gradientTransform="matrix(1 0 0 -0.4142 0 116.4946)" gradientUnits="userSpaceOnUse" r="38.6511">
    <stop offset="0.771" stop-color="#000000"/>
    <stop offset="1" stop-color="#000000" stop-opacity="0"/>
  </radialGradient>
  <path d="M64,92.7c-27.26,0-36.19,11.06-36.19,11.06l11.02,6.17 c0.78,0.53,1.07,1.54,0.68,2.39l-0.55,1.23L54.04,124h19.92l15.08-10.45l-0.55-1.23c-0.39-0.85-0.1-1.86,0.68-2.39l10.8-6.3 C99.97,103.64,91.26,92.7,64,92.7z" enable-background="new " fill="url(#SVGID_1_)" opacity="0.2"/>
  <g id="neck">
    <path d="M64,87.08h-9.08v9.98c0,4.51,4.29,8.17,9.08,8.17s9.08-3.66,9.08-8.17v-9.98L64,87.08z" fill="#C48E6A"/>
  </g>
  <linearGradient id="hand_2_" gradientTransform="matrix(1 0 0 -1 0 128)" gradientUnits="userSpaceOnUse" x1="61.8082" x2="40.443" y1="9.227" y2="9.227">
    <stop offset="0.5" stop-color="#E0BB95"/>
    <stop offset="1" stop-color="#CCA47A"/>
  </linearGradient>
  <path id="hand_1_" d="M38.96,113.56l3.31,0.2c1.22,0,2.42,0.18,3.58,0.53 c3.6,1.1,11.54,3.87,15.85,4.97c1.06,0.27,1.79,1.22,1.79,2.32c0,0.66-0.27,1.26-0.7,1.69c-0.44,0.44-1.04,0.71-1.7,0.71H34.56 L38.96,113.56z" fill="url(#hand_2_)"/>
  <linearGradient id="hand_3_" gradientTransform="matrix(1 0 0 -1 0 128)" gradientUnits="userSpaceOnUse" x1="67.8082" x2="88.3217" y1="9.227" y2="9.227">
    <stop offset="0.5" stop-color="#E0BB95"/>
    <stop offset="1" stop-color="#CCA47A"/>
  </linearGradient>
  <path id="hand" d="M89.04,113.56l-3.31,0.2c-1.22,0-2.42,0.18-3.58,0.53 c-3.6,1.1-11.53,3.87-15.84,4.97c-1.07,0.27-1.8,1.22-1.8,2.32c0,0.66,0.27,1.26,0.7,1.69c0.44,0.44,1.04,0.71,1.7,0.71h26.46 L89.04,113.56z" fill="url(#hand_3_)"/>
  <path id="head" d="M64,25.31L64,25.31L64,25.31c-16.67,0-32.1,16.21-32.1,39.54c0,23.2,15.9,34.67,32.1,34.67 s32.1-11.47,32.1-34.67C96.1,41.52,80.66,25.31,64,25.31z" fill="#E0BB95"/>
  <path id="nose" d="M67.69,83.76c-0.1-0.04-0.21-0.06-0.31-0.07h-6.77c-0.1,0.01-0.21,0.03-0.31,0.07 c-0.61,0.23-0.95,0.81-0.66,1.42s1.64,2.35,4.36,2.35c2.72,0,4.07-1.73,4.36-2.35C68.65,84.57,68.31,83.99,67.69,83.76z" fill="#C48E6A"/>
  <g id="eyes">
    <ellipse cx="47.56" cy="74.81" fill="#5D4037" rx="4.93" ry="4"/>
    <ellipse cx="80.44" cy="74.81" fill="#5D4037" rx="4.93" ry="4"/>
  </g>
  <g id="eyebrows">
    <path d="M54.99,65.82c-0.93-1.23-3.07-3.01-7.23-3.01s-6.31,1.79-7.23,3.01c-0.41,0.54-0.31,1.17-0.02,1.55 c0.26,0.35,1.04,0.68,1.9,0.39s2.54-1.16,5.35-1.18c2.81,0.02,4.49,0.89,5.35,1.18c0.86,0.29,1.64-0.04,1.9-0.39 C55.29,66.99,55.39,66.36,54.99,65.82z" fill="#AB872F"/>
    <path d="M87.48,65.82c-0.93-1.23-3.07-3.01-7.23-3.01s-6.31,1.79-7.23,3.01c-0.41,0.54-0.31,1.17-0.02,1.55 c0.26,0.35,1.04,0.68,1.9,0.39s2.54-1.16,5.35-1.18c2.81,0.02,4.49,0.89,5.35,1.18c0.86,0.29,1.64-0.04,1.9-0.39 C87.79,66.99,87.89,66.36,87.48,65.82z" fill="#AB872F"/>
  </g>
  <g id="hairGroup">
    <path id="hair" d="M32.42,81.72c0.54-5.83,2.74-18.92,7.73-20.08C61.9,56.59,74.2,44.66,74.2,44.66 c3.2,7.23,13.21,14.27,16.8,16.95c2.46,1.83,3.49,13.59,3.74,19.67l7.08,2.84h0.47c0-0.05,0.02-0.1,0.02-0.16 c0.55-8.79,0.73-17.55,0.73-25.31c0-0.6,1.43-38.73-38.45-38.73S25.03,58.05,25.03,58.65c0,7.8,0.18,16.62,0.73,25.47h0.88 L32.42,81.72z" fill="#AB872F"/>
    <radialGradient id="hairHighlights_3_" cx="64.3614" cy="48.1583" gradientTransform="matrix(1 0 0 -1.2135 0 138.2857)" gradientUnits="userSpaceOnUse" r="48.4382">
      <stop offset="0.7945" stop-color="#BFA055" stop-opacity="0"/>
      <stop offset="1" stop-color="#BFA055"/>
    </radialGradient>
    <path id="hairHighlights" d="M32.42,81.72c0.54-5.83,2.74-18.92,7.73-20.08 C61.9,56.59,74.2,44.66,74.2,44.66c3.2,7.23,13.21,14.27,16.8,16.95c2.46,1.83,3.49,13.59,3.74,19.67l7.08,2.84h0.47 c0-0.05,0.02-0.1,0.02-0.16c0.55-8.79,0.73-17.55,0.73-25.31c0-0.6,1.43-38.73-38.45-38.73S25.03,58.05,25.03,58.65 c0,7.8,0.18,16.62,0.73,25.47h0.88L32.42,81.72z" fill="url(#hairHighlights_3_)"/>
  </g>
  <g id="lines">
    <line id="XMLID_56_" fill="none" stroke="#B0BEC5" stroke-linecap="round" stroke-miterlimit="10" stroke-width="4" x1="52.56" x2="49.86" y1="15.99" y2="5.9"/>
    <line id="XMLID_55_" fill="none" stroke="#B0BEC5" stroke-linecap="round" stroke-miterlimit="10" stroke-width="4" x1="36.96" x2="30.3" y1="22.58" y2="16.04"/>
    <line id="XMLID_54_" fill="none" stroke="#B0BEC5" stroke-linecap="round" stroke-miterlimit="10" stroke-width="4" x1="90.31" x2="97.7" y1="23.42" y2="16.04"/>
    <line id="XMLID_53_" fill="none" stroke="#B0BEC5" stroke-linecap="round" stroke-miterlimit="10" stroke-width="4" x1="75.44" x2="78.14" y1="15.99" y2="5.9"/>
  </g>
</svg>
